X:3092
T:John Stetson's #2
O:england
M:C
L:1/8
K:A
|: cB | ABcA B2 cB | ABcA BAFA | ABcA B2 ef | edcA BAFA |
ABcA B2 Bc | ABcA BAFA | d2 dc dfed | cABc A2 :|
|: cd | edcd edcd | edcA BAFA | edcd edcA | B2 cA BAFA |
edcd edcd | edcA BAFA | d2 dc dfed | cABc A2 :|
